src/lib/packages/icons/src/assets/filled/home-roof-heart.svg

<svg width="24" height="24" viewBox="0 0 24 24" fill="none" xmlns="http://www.w3.org/2000/svg">
<path d="M21.477 9.08502L14.0649 2.98907C12.8679 2.00707 11.133 2.00607 9.93598 2.98907L2.52399 9.08404C2.20499 9.34704 2.15796 9.81907 2.42096 10.1401C2.68396 10.4611 3.15699 10.5051 3.47699 10.2431L4.49994 9.40106V18.0001C4.49994 20.2901 5.70994 21.5001 7.99994 21.5001H15.9999C18.2899 21.5001 19.4999 20.2901 19.4999 18.0001V9.40204L20.5229 10.2441C20.6629 10.3591 20.8319 10.4151 20.9999 10.4151C21.2159 10.4151 21.4309 10.322 21.5789 10.142C21.8429 9.82003 21.796 9.34802 21.477 9.08502ZM15.925 13.793C15.403 16.462 11.9999 18.0001 11.9999 18.0001C11.9999 18.0001 8.59689 16.463 8.07489 13.793C7.75489 12.156 8.454 10.5081 10.232 10.5001C11.556 10.4941 11.9999 11.8181 11.9999 11.8181C11.9999 11.8181 12.4439 10.4931 13.7679 10.5001C15.5489 10.5091 16.245 12.156 15.925 13.793Z" fill="currentColor"/>
</svg>

<svg xmlns="http://www.w3.org/2000/svg" width="24" height="24" fill="none"><path fill="currentColor" d="m21.477 9.085-7.412-6.096a3.26 3.26 0 0 0-4.129 0L2.524 9.084a.751.751 0 0 0 .953 1.16L4.5 9.4V18c0 2.29 1.21 3.5 3.5 3.5h8c2.29 0 3.5-1.21 3.5-3.5V9.401l1.023.842a.749.749 0 0 0 1.056-.102.751.751 0 0 0-.102-1.057Zm-5.552 4.708C15.403 16.462 12 18 12 18s-3.403-1.537-3.925-4.207c-.32-1.637.379-3.285 2.157-3.293C11.556 10.494 12 11.818 12 11.818s.444-1.325 1.768-1.318c1.78.01 2.477 1.656 2.157 3.293Z"/></svg>
